src/lib/packages/icons/src/assets/line/phone-missed.svg

<svg width="24" height="24" viewBox="0 0 24 24" fill="none" xmlns="http://www.w3.org/2000/svg">
<path d="M22.612 15.7C22.295 14.283 21.456 13.096 20.311 12.445C15.209 9.54401 9.096 9.49801 3.956 12.321C2.677 13.024 1.74487 14.241 1.39887 15.66C1.05287 17.076 1.31988 18.582 2.13788 19.802C2.53788 20.403 3.20888 20.749 3.90888 20.749C4.08488 20.749 4.262 20.727 4.435 20.683L7.15888 19.986C8.51488 19.639 9.3609 18.291 9.0849 16.917L8.85199 15.756C10.898 15.063 13.1511 15.06 15.1931 15.748L14.9609 16.924C14.6889 18.297 15.537 19.64 16.892 19.982L19.631 20.675C20.48 20.889 21.3739 20.572 21.8569 19.887C22.6729 18.725 22.948 17.199 22.612 15.7ZM20.6289 19.023C20.5029 19.201 20.245 19.282 19.997 19.22L17.258 18.527C16.678 18.38 16.3149 17.804 16.4309 17.215L16.7871 15.414C16.8571 15.062 16.6679 14.71 16.3359 14.574C13.5989 13.451 10.452 13.455 7.70502 14.584C7.37302 14.72 7.18383 15.073 7.25483 15.426L7.61396 17.213C7.73296 17.805 7.37003 18.385 6.78803 18.534L4.06391 19.231C3.80091 19.297 3.53292 19.192 3.37592 18.957C2.79092 18.084 2.60592 17.039 2.85492 16.016C3.10092 15.005 3.76495 14.137 4.67695 13.637C6.98295 12.37 9.50192 11.738 12.0219 11.738C14.6179 11.738 17.2111 12.409 19.5681 13.749C20.3461 14.192 20.9219 15.022 21.1469 16.028C21.3889 17.099 21.1939 18.219 20.6289 19.023ZM6.24994 7V4C6.24994 3.902 6.27005 3.80501 6.30805 3.71301C6.38405 3.52901 6.53006 3.38301 6.71406 3.30701C6.80606 3.26901 6.90292 3.24899 7.00092 3.24899H10.0009C10.4149 3.24899 10.7509 3.58499 10.7509 3.99899C10.7509 4.41299 10.4149 4.74899 10.0009 4.74899H8.81196L11.1179 7.05499C11.6059 7.54199 12.3969 7.54199 12.8859 7.05499L16.4719 3.46899C16.7649 3.17599 17.2399 3.17599 17.5329 3.46899C17.8259 3.76199 17.8259 4.237 17.5329 4.53L13.947 8.116C13.411 8.652 12.7069 8.92001 12.0029 8.92001C11.2989 8.92001 10.595 8.652 10.059 8.116L7.75287 5.81V7C7.75287 7.414 7.41687 7.75 7.00287 7.75C6.58887 7.75 6.24994 7.414 6.24994 7Z" fill="currentColor"/>
</svg>

<svg xmlns="http://www.w3.org/2000/svg" width="24" height="24" fill="none"><path fill="currentColor" d="M22.612 15.7c-.317-1.417-1.156-2.604-2.301-3.255-5.102-2.901-11.215-2.947-16.355-.124a5.234 5.234 0 0 0-2.557 3.339 5.22 5.22 0 0 0 .739 4.142 2.128 2.128 0 0 0 2.297.881l2.724-.697a2.631 2.631 0 0 0 1.926-3.069l-.233-1.161a9.964 9.964 0 0 1 6.341-.008l-.232 1.176a2.625 2.625 0 0 0 1.931 3.058l2.739.693c.849.214 1.743-.103 2.226-.788.816-1.162 1.091-2.688.755-4.187Zm-1.983 3.323c-.126.178-.384.259-.632.197l-2.739-.693a1.127 1.127 0 0 1-.827-1.312l.356-1.801a.75.75 0 0 0-.451-.84 11.448 11.448 0 0 0-8.631.01.75.75 0 0 0-.45.842l.359 1.787a1.131 1.131 0 0 1-.826 1.321l-2.724.697a.633.633 0 0 1-.688-.274 3.668 3.668 0 0 1-.521-2.941 3.723 3.723 0 0 1 1.822-2.379 15.224 15.224 0 0 1 7.345-1.899c2.596 0 5.19.671 7.546 2.011.778.443 1.354 1.273 1.579 2.279.242 1.071.047 2.191-.518 2.995ZM6.249 7V4a.75.75 0 0 1 .465-.693.75.75 0 0 1 .287-.058h3a.75.75 0 0 1 0 1.5H8.812l2.306 2.306a1.252 1.252 0 0 0 1.768 0l3.586-3.586a.75.75 0 1 1 1.06 1.061l-3.585 3.586a2.74 2.74 0 0 1-1.944.804 2.74 2.74 0 0 1-1.944-.804L7.753 5.81V7A.75.75 0 0 1 6.25 7Z"/></svg>
